X:1
T:Onido, 77.77 D
T:Ignaz Josef Pleyel (1757-1831)
T:Onido, 77.77 D
T:Public Domain
C:Ignaz Josef Pleyel (1757-1831)
Z:Public Domain
%%score ( 1 2 ) ( 3 4 )
L:1/8
M:4/4
K:E
V:1 treble 
V:2 treble 
V:3 bass 
V:4 bass 
V:1
 [GB]2 [FB]2 [EB]3 [EG] x | [FA]2 [DF]2 [EG]4 | [EA]2 [EB]2 ([Ec][Ad])(eB) | %3
 (BA)([FA][EG]) ([EG]2 [DF]2) | [GB]2 [FB]2 [EB]3 [EG] x | [FA]2 [DF]2 [EG]4 | %6
 [EA]2 [EB]2 ([Ec][Ad]) [Ge]2 | [EG]2 [DF]2 E4 | [DF]2 [DF]2 [DF]3 [EG] | %9
 ([FA][EG])([DF][EG]) ([FA]2 [DF]2) | [EG]2 [EG]2 [EG]3 [FA] | ([GB][FA])([EG][FA]) [GB]2 [EG]2 | %12
 [EB]2 (DF) [EB]3 [GB] | [Ac]2 [Ad]2 [Ge]4 | ([ce][Bd])([Ac][GB]) (GDE)[FA] | [EG]2 [DF]2 E4 |] %16
V:2
 x9 | x8 | x6 G2 | F2 x6 | x9 | x8 | x8 | x4 E4 | x8 | x8 | x8 | x8 | x2 B2 x4 | x8 | x4 B3 x | %15
 x4 E4 |] %16
V:3
 [E,B,]2 [A,D]2 E z2 [E,B,] x | [A,,C]2 [B,,B,]2 [E,B,]4 | [C,A,]2 [E,G,]2 (A,[F,B,]) [E,B,]2 | %3
 [D,B,]2 [E,B,]2 [B,,B,]4 | [E,B,]2 [A,D]2 E z2 [E,B,] x | [A,,C]2 [B,,B,]2 [E,B,]4 | %6
 [C,A,]2 [E,G,]2 (A,[F,B,]) [E,B,]2 | B,2 [B,,A,]2 [E,G,]4 | [B,,B,]2 [B,,B,]2 [B,,B,]3 [B,,B,] | %9
 [B,,B,]2 [B,,B,]2 [B,,B,]4 | [E,B,]2 [E,B,]2 [E,B,]3 [E,B,] | [E,B,]2 [E,B,]2 [E,B,]4 | %12
 [E,G,]2 [F,A,]2 [G,B,]3 [E,E] | [A,C]2 [F,B,]2 [E,B,]4 | [E,E]2 [E,E]2 ([E,E]E,G,)[A,C] | %15
 B,2 [B,,A,]2 [E,G,]4 |] %16
V:4
 x4 G,2 B,3 | x8 | x8 | x8 | x4 G,2 B,3 | x8 | x8 | B,2 x6 | x8 | x8 | x8 | x8 | x8 | x8 | %14
 x5 B,2 x | B,2 x6 |] %16

